!!!!SEGMENT: pl-wn--mus-iii-105-719-2--002_zelenski-wladyslaw--25-preludyi-op-38-18-andante-non-troppo-lento.krn
!!!cenid: 18xx:3751
!!!COM: Żeleński, Władysław
!!!COM-rismID: pe41024455
!!!CDT: 1837/07/06-1921/01/23
!!!CNT: Polish
!!!GTL: 25 preludyi op. 38
!!!OTL: 18. Andante non troppo lento
!!!PDT: 1881
!!!AGN:
!!!SMS-siglum: PL-Wn
!!!SMS-shelfmark: Mus.III.105.719/2
!!!SMS-shelfwork: 002 G
!!!SMS-variant:
!!!SMS-altvar:
!!!NIFC-rismSourceID:
!!!NIFC-islandoraID:
!!!URL-pdf-islandora:
!!!URL-scan: https://polona.pl/item/25-preludyi-2-3-i-4-glosowych-na-organ-lub-fisharmonike-do-uzytku-organistow-i,ODE1NjEwNDA/2/#info:metadata @EN{Scan on Polona} @PL{Skany w portalu Polona}
!!!ONB-nifc:
!!!AIN: 1 organ
!!!key: c
**kern	**fing	**kern	**fing	**dynam
*part1	*part1	*part1	*part1	*part1
*staff2	*staff2	*staff1	*staff1	*
*I"[Organ]	*	*I"[Organ]	*	*
*Iorgan	*	*Iorgan	*	*
*ICklav	*	*ICklav	*	*
*clefF4	*	*clefG2	*	*
*k[b-e-a-]	*	*k[b-e-a-]	*	*
*c:	*	*c:	*	*
*M6/8	*	*M6/8	*	*
=1	=1	=1	=1	=1
*	*	*^	*	*
*	*	*	*	*^	*
*xywh-4:752,457,5192,918	*	*xywh-4:752,457,5192,918	*	*	*	*
!	!	!LO:TX:Bi:a:t=1):łagodnie 8 stopowemi głosami / sanfte 8 fuſsstimmen:footnote	!	!	!	!
4E-\	.	([4.g/	4e- 4B-\	5	2 1	p
8r	.	.	8r	.	.	.
4BB-/	.	8g/L]	4d 4A-\	.	.	.
.	.	8f/	.	4	.	.
8r	.	8g/J	8r	5	.	.
*	*	*	*	*v	*v	*
=2	=2	=2	=2	=2	=2
4C\	.	[4.e-/	4c< 4G</	3-5	.
8r	.	.	8r<	.	.
4GG\	.	8e-/L]	4Bn< 4F</	.	.
*	*	*	*	*below	*
.	.	8d/	.	4	.
8r	.	8e-/J	8r<	5	.
=3	=3	=3	=3	=3	=3
4AA-\	.	[2.c/	4A-< 4E-</	.	<
8r	.	.	8r<	.	.
4GG\	.	.	4B-X< 4En</	3 1	.
8rEE	.	.	8r<	.	[
=4	=4	=4	=4	=4	=4
!	!	!	!LO:TX:t=P:problem=błędne wyświetlanie łuku	!	!
[4.FF\	.	4.c/_	(4.B-< [4.F</	.	>
8FF\]	.	8c/L])	8A-<) 8F</]	.	]
8r	.	(>8f/	8r<	2	.
8r	.	8g/J	8r<	.	.
=5	=5	=5	=5	=5	=5
*	*	*	*	*^	*
4F\	.	[4.a-/	4f 4c\	4	2 1	p
8r	.	.	8r	.	.	.
4E-\	.	8a-/L]	4f 4c\	.	.	.
*	*	*	*	*above	*	*
.	.	8g/	.	3	.	.
8r	.	8a-/J	8r	4	.	.
=6	=6	=6	=6	=6	=6	=6
4D\	.	[4.cc/	4a- 4f\	5	3 1	.
8r	.	.	8r	.	.	.
4F\	.	8cc/L]	4a- 4d\	.	2 1	.
.	.	8b-/	.	.	.	.
8r	.	8a-/J	8r	.	.	.
=7	=7	=7	=7	=7	=7	=7
(4.BBn/	.	[4.g/	4f 4d\	4	2-3 1	.
.	.	.	8ryy	.	.	.
4C/	.	8g/L]	4.e- 4.c\	.	2 1	<
.	.	8b-/	.	.	.	.
8FF/	.	8a-/J	.	.	.	[
=8	=8	=8	=8	=8	=8	=8
[4.BB-/)	.	(4.g 4.e-/	4B-\	5	2-3 1	>
.	.	.	8An\	.	1	.
!	!	!LO:TX:t=P:problem=mixed beam	!	!	!	!
8BB-/]	.	8f 8d/))	8B-\L	5	3 2	]
!	!	!	!LO:TX:t=P:problem=łuk powinien być zakończony na dźwięku E- w lewej ręce, jednak takie rozwiązanie spowodowałoby błędne wyświetlanie	!	!	!
8r	.	8r	(8A-X</	1	.	.
8r	.	8r	8F</J	2	.	.
=9	=9	=9	=9	=9	=9	=9
*	*below	*	*	*	*	*
!	!	!LO:TX:Bi:a:t=2):na dwóch klawiaturach / beide Manuale	!	!	!	!LO:DY:a
!	!	!	!	!	!	!LO:DY:a
([<4.E-\	3	4.g 4.e-/	8B-\L)	3 5	2	p
!	!	!	!	!	!	!LO:HP:a:t=crescendo poco a poco:dur=5qe
.	.	.	8An\	.	1	<
.	.	.	8B-\J	.	2	.
8E-\L]	.	4.g 4.f/	4.Bn\	4	1-2	.
8D\	4	.	.	.	.	.
8E-\J	2	.	.	.	.	.
*	*	*	*	*v	*v	*
=10	=10	=10	=10	=10	=10
[4.C/	.	[4.g 4.e-/	8c\L	1	.
.	.	.	8Bn\	2	.
.	.	.	8c\J	1	.
8C/L]	.	4.g_ [4.en/	4.d-X\	4 2	.
8AAn/	3	.	.	.	.
8BB-/J	2	.	.	.	.
=11	=11	=11	=11	=11	=11
*	*	*	*	*^	*
[4.AA-X/	3	8g]L 8e/]	[4.c\	.	.	.
*	*	*	*	*above	*	*
.	.	(8en/	.	2	.	.
.	.	8f/J	.	3	.	.
8AA-/L]	.	[4.b-/	4.e-X 4.c/_	5	2	.
8GG/	4	.	.	.	.	.
8AA-/J	3	.	.	.	.	.
*	*	*	*	*v	*v	*
=12	=12	=12	=12	=12	=12
[4.FF/	.	8b-/L]	[4.f 4.c\_	3-2 1	.
*	*	*	*	*above	*
.	.	8a-/	.	4	.
.	.	8g/J	.	3	.
8FF/L])	.	8a-/)	8f] 8c\]	4	.
*	*	*	*	*below	*
(8AA-/	3	8r	4ryy	.	.
8C/J	2	8r	.	.	.
!!LO:LB:g=original
=13	=13	=13	=13	=13	=13
*	*	*	*	*^	*
*xywh-4:638,1126,5299,819	*	*xywh-4:638,1126,5299,819	*	*	*	*
[4.F\	.	(8a-/L	(4.f [4.c\	4	2 1	.
.	.	8g/	.	3	.	.
.	.	8a-/J	.	4	.	.
8F\L]	.	4.an/	4.g-X 4.c\])	5	3 1	.
8D\	.	.	.	.	.	.
8E-\J)	.	.	.	.	.	.
=14	=14	=14	=14	=14	=14	=14
*	*above	*	*	*	*	*
([4.D/	1	8b-/L	4.f\	3	1	.
.	.	8an/	.	.	.	.
.	.	8b-/J	.	.	.	.
8D/L]	.	4.cc [<4.a/	4.e-/	4	2 1	.
8BBn/	.	.	.	.	.	.
8C/J	.	.	.	.	.	.
=15	=15	=15	=15	=15	=15	=15
4.BB-X/	.	[4.dd 4.d/	8a\L]	.	.	.
.	.	.	(8f#X\	.	2	.
.	.	.	8g\J	.	2	.
4.C/	.	8dd]L 8b-/	4.en\)	3 5	1	>
.	.	8cc 8an/	.	3 5	.	.
.	.	8b-J 8g/)	.	2 4	.	]]
=16	=16	=16	=16	=16	=16	=16
!	!	!	!	!	!	!LO:HP:b:t=dimin.
4.F\	.	([4.b-/	4.f 4.d\	5	3 1	>
4.FF/	.	8b-/L]	4.e- 4.c\	.	2 1	.
.	.	8g/	.	3	.	.
.	.	8an/J	.	4	.	.
=17	=17	=17	=17	=17	=17	=17
8BB-\L	3	[4.b-/	8d 8B-\	5	2 1	.
8D\	2	.	8r	.	.	.
8F\J	1	.	8r	.	.	.
8B-\)	2	8b-/L])	4r	.	.	.
8r	.	(8an/	.	2	.	.
!	!	!LO:TX:i:b:t=espress.	!	!	!	!
8r	.	8b-/J	8r	.	.	<
*	*	*	*	*v	*v	*
=18	=18	=18	=18	=18	=18
2.r	.	8dd-X/L	2.re	.	.
.	.	8b-/	.	.	.
.	.	8a-X/J	.	.	.
*	*	*	*	*above	*
.	.	8g/L	.	1	[ >
*	*	*	*	*below	*
.	.	8qb-/	.	4	.
.	.	8a-/	.	3	.
.	.	8f/J	.	2	]
=19	=19	=19	=19	=19	=19
!	!	!LO:TX:Bi:a:t=3):na pierwszej klawiaturze wzmocnionej głosami 4 stopowemi / Erstes Manual mit 4 Fussstimmen verstarkt	!	!	!
8r	.	[(2.cc 2.c/)	4r	.	p <
*	*below	*	*	*	*
(8C\L	5	.	.	.	.
8D\J	.	.	8r	.	.
*	*	*	*	*above	*
8En\L	.	.	(4.b-\	4	.
8D\	.	.	.	.	.
8E\J	.	.	.	.	.
*	*	*	*	*below	*
=20	=20	=20	=20	=20	=20
8F\L	.	2.cc/_	4a- 4d\)	3 1	.
8En\	.	.	.	.	.
8F\J	.	.	8r	.	.
8G\L	.	.	[>4.b- [4.en\	4 1	.
8F\	.	.	.	.	.
8G\J	1	.	.	.	.
=21	=21	=21	=21	=21	=21
[4.A-\	.	4.cc_ 4.e/]	8b-\L]	.	.
.	.	.	8a-\	.	.
.	.	.	8g\J	.	.
8A-\])	.	8cc/L])	8a- 8f\	3 1	.
*	*	*	*	*above	*
8r	.	(8dd/	8r	2	.
*	*	*	*	*below	*
8r	.	8een/J	8r	.	.
*	*	*v	*v	*	*
=22	=22	=22	=22	=22
2.r	.	8gg\L	.	.
.	.	8ff\	.	[ >
.	.	8dd-X\J	.	.
.	.	8cc\L)	.	.
.	.	(8f\	2	.
.	.	8a-\J	4	]]
=23	=23	=23	=23	=23
*	*	*^	*	*
*	*	*	*	*above	*
8r	.	[2.g 2.G/)	4r	5	p <
(8GG/L	.	.	.	.	.
8AAn/J	.	.	8r	.	.
8BBn/L	.	.	(4.f\	.	.
8AA/	.	.	.	.	.
8BB/J	.	.	.	.	.
=24	=24	=24	=24	=24	=24
8C/L	.	2.g/_	4e- 4An\)	.	.
8BBn/	.	.	.	.	.
8C/J	.	.	8r	.	.
8D/L	.	.	[>4.f [4.Bn\	.	.
8C/	.	.	.	.	.
8D/J	1	.	.	.	.
!!LO:LB:g=original
=25	=25	=25	=25	=25	=25
*	*above	*	*	*	*
*xywh-4:681,1782,5221,740	*	*xywh-4:681,1782,5221,740	*	*	*
[4.E-\	2	4.g_ 4.B/]	8f\L]	.	.
.	.	.	8e-\	.	.
.	.	.	8d\J	.	.
8E-\])	.	8g/L]	8e- 8c\	.	.
8r	.	(8an/	8r	.	.
8r	.	8bn/J	8r	.	.
=26	=26	=26	=26	=26	=26
4r	.	8dd/L	2.re	.	[
.	.	8cc/	.	.	.
8r	.	8a-X/J	.	.	.
8r	.	4.g/)	.	.	>
(8c\L	3	.	.	.	.
8e-\J)	2	.	.	.	]
=27	=27	=27	=27	=27	=27
!	!	!LO:TX:Bi:a:t=4):na drugiej klawiaturze / Zweites Manual	!	!	!
8r	.	[4.g/	8r	4	.
*	*	*	*	*below	*
(8An'\L	.	.	(>8e-L 8c'>\	2 1	.
8A'\J)	.	.	8e-J 8c'>\)	.	.
!	!	!LO:TX:i:b:t=poco espress.	!	!	!
4A\	.	8g/L]	4e- 4c\	.	.
*	*	*	*	*above	*
.	.	(8en/	.	2	.
8r	.	8f/J	8r	3	.
=28	=28	=28	=28	=28	=28
8r	.	[4.cc/)	8r	5	.
(8A-X'\L	.	.	(>8fL 8d'>\	.	.
8A-'\J)	.	.	8fJ 8d'>\)	.	.
4A-\	.	8cc/L]	4f 4d\	.	.
.	.	(8an/	.	3	.
8r	.	8cc/J	8r	5	.
=29	=29	=29	=29	=29	=29
8r	.	[4.b-/)	8r	4	.
(8G'\L	.	.	(8fL 8d-X'\	.	.
8G'\J)	.	.	8fJ 8d-'\)	.	.
4G\	.	8b-/L]	4en 4d-\	.	<
.	.	(8an/	.	2	.
8r	.	8b-/J	8r	3	.
=30	=30	=30	=30	=30	=30
8r	.	[4.dd-X/)	8r	5	.
*	*	*	*	*below	*
8F\L	.	.	(8b-L 8f'\	3 1	.
8F\J	.	.	8b-J 8f'\)	.	.
4En\	.	8dd-/L]	4b- 4g\	2 1	.
.	.	(8bn/	.	.	.
8r	.	8dd-/J	8r	.	.
=31	=31	=31	=31	=31	=31
8r	.	4.cc/)	8r	.	.
(8E-X'\L	.	.	(8a-L 8f'\	.	.
8E-'\J)	.	.	8a-J 8f'\)	.	.
4.D\	.	8cc/L	4.a- 4.f\	.	.
.	.	(8bn/	.	.	.
.	.	8ddn/J	.	.	.
=32	=32	=32	=32	=32	=32
8r	.	[4.cc/)	8r	.	.
(8E-'\L	.	.	8a-L 8f\	.	.
8E-'\J)	.	.	8a-J 8f\	.	.
4.D\	.	8cc/L]	4a- 4f\	.	.
.	.	(8bn/	.	.	[
.	.	8dd/J	8ryy	.	.
=33	=33	=33	=33	=33	=33
*	*	*	*	*above	*
*	*^	*	*	*	*
!	!	!	!LO:TX:Bi:a:t=5):na pierwszej klawiaturze / Erstes Manual	!	!	!
8r	.	.	4.cc/)	8cc\L	4	.
(8E-L 8AA-'/	2	5	.	(8c'\	1	<
8E-J 8AA-'/)	.	.	.	8c'\J)	.	.
8r	.	.	4.f/	8f\L	2	.
(8E-L 8AAn'/	.	.	.	(8c'\	1	.
8E-J 8AA'/)	.	.	.	8c'\J)	.	.
=34	=34	=34	=34	=34	=34	=34
8r	.	.	4.g/	8g\L	3	.
(8E-L 8BB-'/	2	1	.	(8d-X'\	1	.
8E-J 8BB-'/)	.	.	.	8d-'\J)	.	.
8r	.	.	4.an/	8an\L	4-3	.
(8FL 8C'/	1	3	.	((8e-'\	1	.
8FJ 8C'/)	.	.	.	8e-'\J))	.	.
=35	=35	=35	=35	=35	=35	=35
*^	*	*	*	*	*	*
*	*	*	*	*	*	*^	*
[4.A-X/	[4.D\	2	5	([4.cc/	[4.f\	5	1	sfz >
8A-/]	8D\]	.	.	8cc/L]	8f\]	.	.	.
8r	8ryy	.	.	8b-/	8r	.	.	.
8r	8ryy	.	.	8an/J	8r	.	.	]
*	*	*v	*v	*	*	*	*	*
*	*	*	*v	*v	*	*	*
!!LO:LB:g=original
=36	=36	=36	=36	=36	=36	=36
*xywh-4:709,2401,5292,762	*	*	*xywh-4:709,2401,5292,762	*	*	*
!	!	!	!	!	!	!LO:HP:t=dimin.
2.r	2.r	.	8cc/L	.	.	>
.	.	.	8b-/	.	.	.
.	.	.	8an/	.	.	.
.	.	.	8cc/	.	.	.
.	.	.	8b-/	.	.	.
.	.	.	8a-X/J)	.	.	.
*v	*v	*	*	*	*	*
=37	=37	=37	=37	=37	=37
*	*	*^	*	*	*
*	*below	*	*	*	*	*
!	!	!LO:TX:Bi:a:t=6):łagodnie jak z początku bez głosów 4 stopowych / Zart wie Anfangs ohne 4 Fussstimmen	!	!	!	!
8r	.	([4.g/	4e- 4B-\	5	2 1	p
(8E-'\L	2	.	.	.	.	.
8G'\J	1	.	8r	.	.	.
4BB-/)	4	8g/L]	4d 4A-\	.	.	.
.	.	8f/	.	.	.	.
8r	.	8g/J	8r	.	.	.
*	*	*	*	*v	*v	*
=38	=38	=38	=38	=38	=38
8r	.	[4.e-/	4c 4G\	.	.
(<8C'\L	3	.	.	.	.
8E-'\J	2	.	8r	.	.
4GG\)	5	8e-/L]	4Bn< 4F</	.	.
.	.	8d/	.	.	.
8ryy	.	8e-/J	8r<	.	.
=39	=39	=39	=39	=39	=39
8r	.	[4.c/	4A-< 4E-</	.	<
(>8AA-'>\L	4	.	.	.	.
8C'>\J)	2	.	8ryy	.	.
8r	.	4.c/_	4B-< 4En</	.	.
(>8C'>\L	1	.	.	.	.
8GG'>\J)	4	.	8r<	.	.
*	*	*v	*v	*	*
=40	=40	=40	=40	=40
*	*	*^	*	*
8r	.	4.c/_ 4.B-< [>4.F</	4.ryy	.	[[
(<8FF\L	5	.	.	.	.
8D-X\J	2	.	.	.	.
8C\)	1	8c])L 8A-< 8F</]	8ryy	.	.
8r	.	(8f/	8r	.	.
8r	.	8g/J	8r	.	.
=41	=41	=41	=41	=41	=41
*	*	*	*	*above	*
!	!	!	!	!	!LO:HP:b:t=crescendo-:dur=7q
8r	.	[4.a-/	4f 4c\	4	<
(8F'\L	3	.	.	.	.
8A-'\J	2	.	8r	.	.
4D\)	5	8a-/L])	4f 4Bn\	.	.
.	.	(8f#X/	.	3	.
8r	.	8g/J	8r	4	.
=42	=42	=42	=42	=42	=42
8r	.	[4.b-/	4en 4d-X\	5	.
(8G'\L	3	.	.	.	.
8B-'\J	2	.	8r	.	.
4F#X\)	4	8b-/L])	4e-X 4c\	.	.
.	.	(8g#X/	.	3	.
8r	.	8an/J	8r	4	.
*	*	*v	*v	*	*
=43	=43	=43	=43	=43
8r	.	[4.cc [4.e-/)	2 5	.
(8Fn'\L	4	.	.	.
8A-'\J	2	.	.	.
4G\)	3	8cc]L 8e-/]	.	.
.	.	(>8b-/	4	.
8r	.	8g/J	2	.
=44	=44	=44	=44	=44
*	*	*^	*	*
8r	.	[4.e-/)	4r	1-3	<
*	*	*	*	*below	*
(8BBn'/L	.	.	.	.	.
8D'/J	.	.	8r	.	.
8C'/L	.	(4.e-/_	8r	.	.
8AA-'/	.	.	8c'>\L	1	[[
8GG'/J	.	.	8B-X'>\J	2	.
=45	=45	=45	=45	=45	=45
*	*	*	*	*^	*
4FF/)	.	4.a-/	4e-] 4A-\	.	.	sfz
8r	.	.	8r	.	.	.
*	*above	*	*	*	*	*
4.BB-/	2	4.f/ (4.d 4.A-/	4.ryy	4	2 1	p >
*	*	*v	*v	*	*	*
=46	=46	=46	=46	=46	=46
!	!	!LO:TX:Bi:a:t=7):na drugiej klawiaturze / Zweites Manual	!	!	!
8EE-/	.	8e-L 8G/))	3	1	]
!	!	!LO:TX:i:b:t=dolce	!	!	!
8r	.	(8g/	1	.	.
8r	.	8b-/J	2	.	.
8r	.	[4.ee-\	4	.	.
(<8c\L	3	.	.	.	.
8B-\J	.	.	.	.	.
*	*	*	*v	*v	*
=47	=47	=47	=47	=47
[4.An\	5	8ee-\L]	.	.
.	.	8dd\	.	.
.	.	8cc\J	.	.
*	*	*	*above	*
8A\L]	.	[>4.f/	1-2	.
*	*	*	*below	*
8c\	3	.	.	.
8e-\J	2	.	.	.
!!LO:LB:g=original
=48	=48	=48	=48	=48
*xywh-4:702,2993,5206,1253	*	*xywh-4:702,2993,5206,1253	*	*
[4.A-X\	5	(8f/L])	.	.
.	.	8d/	1	.
.	.	8f/J	2	.
*	*	*	*above	*
8A-\L]	.	[4.cc\	5	.
8G\	1	.	.	.
8F\J	2	.	.	.
=49	=49	=49	=49	=49
[4.G\	1	8cc\L]	.	.
.	.	8b-\	4	.
.	.	8e-\J	1	.
*	*	*	*below	*
8G\L]	.	[4.d-X/	2	.
8B-\	2	.	.	.
8E-\J	5	.	.	.
=50	=50	=50	=50	=50
*	*	*^	*	*
[4.A-\	.	8d-/L])	8ryy	.	.
.	.	8c/	4c\	1	.
*	*	*	*	*above	*
!	!	!	!	!	!LO:HP:b:t=crescendo
.	.	8e-/J	.	2	<
8A-\L]	.	[4.a-/ [4.c/	4.ryy	4	.
*	*	*	*	*below	*
8En\	5	.	.	.	.
8F\J	1	.	.	.	.
=51	=51	=51	=51	=51	=51
[4.C/	2-1	8a-]L 8c/]	8ryy	.	.
!	!	!LO:TX:Bi:a:t=8):na pierwszej klawiaturze z głosami 4 stopowemi / Erstes Manual mit 4 Fussstimmen	!	!	!
.	.	8e-/	[4e-\	2	.
*	*	*	*	*above	*
.	.	8a-/J	.	4	.
8C/L]	.	[4.cc/ 4.e-/_	4.ryy	5-4	.
*	*	*	*	*below	*
8GG/	3	.	.	.	.
8AA-/J	2	.	.	.	.
=52	=52	=52	=52	=52	=52
[4.FF/	4	8cc/L]	4e-\]	.	.
.	.	8ee-/	.	.	.
.	.	8g/J	8en\	2 1	.
8FF/L]	.	8a-L 8f/	4.ryy	3 1-2	.
8EEn/	5	8cc 8c/	.	5 1	.
*	*below	*	*	*	*
8BB-/J	2	8enJ 8d-X/	.	3 2	.
=53	=53	=53	=53	=53	=53
*	*	*	*	*^	*
8AA-/L	.	8f/L	4c\	.	4 1-2	.
8FF/	.	8a-/	.	.	5	.
8AA-/J	.	8e-/J	8c-X\	.	3 1	.
!	!	!	!	!	!	!LO:HP:a
!	!	!LO:TX:t=P:problem=mixed beam	!	!	!	!LO:DY:a
4.BB-\)	2-5	4g 4e-/	8B-\L	3 5	2	>
.	.	.	8An</	.	1	.
.	.	8f 8d/	8A-X\J	2 4	1	]]
*	*	*	*	*v	*v	*
=54	=54	=54	=54	=54	=54
*	*	*	*	*above	*
*	*^	*	*	*	*
!	!	!	!LO:TX:Bi:a:t=9):na drugiej klawiaturze / Zweites Manual.	!	!	!
8r	.	.	[4.e-/	8r	3	.
(8GL 8C'\	1	5	.	(8c'\L	.	p
8GJ 8C'\)	.	.	.	8c'\J)	.	.
8G 8C\	.	.	8e-/L]	8c\	.	.
8r	.	.	(8d/	8r	2	.
8r	.	.	8f/J	8r	4	.
=55	=55	=55	=55	=55	=55	=55
8r	.	.	[4.e-/)	8r	3	.
*	*	*	*	*	*below	*
(8GL 8BB-'\	1	4	.	(8d-X'\L	2	.
8GJ 8BB-'\)	.	.	.	8d-'\J)	.	.
8G 8BB-\	.	.	8e-/L]	8d-\	.	<
*	*	*	*	*	*above	*
8r	.	.	(>8dn/	4ryy	1	.
8r	.	.	8f/J	.	4	.
=56	=56	=56	=56	=56	=56	=56
8r	.	.	4.e-/)	8r	3	.
*	*	*	*	*	*below	*
(8G-XL 8AAn'\	2	5	.	(8c'\L	1	.
8G-J 8AA'\)	.	.	.	8c'\J)	.	.
8G- 8AA\	.	.	(8e-/L	8c\	.	.
*	*	*	*	*	*above	*
8r	.	.	8d/	8r	2	.
8r	.	.	8f/J	8r	4	.
*	*v	*v	*	*	*	*
=57	=57	=57	=57	=57	=57
*	*	*	*^	*	*
*	*	*	*	*	*^	*
4r	.	8e-/L	4r	4.ryy	3	.	.
.	.	8d/	.	.	2	.	.
8r	.	8f/J	8rA	.	5	.	.
4AA-X\	2	8e-/L	4c-X\	4F</	4	2 1	.
.	.	8d/	.	.	3	.	.
8r	.	8f/J	8r<	8r	5	.	.
*	*	*	*v	*v	*	*	*
*	*	*	*	*v	*v	*
=58	=58	=58	=58	=58	=58
4r	.	4rA<	[2.e-/)	4	[ pp
8r	.	8rA<	.	.	.
4EE-\	4 1 2	4B-< 4G</	.	.	.
8r	.	8rA<	.	.	.
=59	=59	=59	=59	=59	=59
2.EE-\	3	2.B-< 2.G</	2.e-;>/]	.	<
.	.	.	.	.	[ >
.	.	.	.	.	]
*	*	*v	*v	*	*
==	==	==	==	==
*-	*-	*-	*-	*-
!!!system-decoration: {(s1,s2)}
!!!RDF**kern: > = above
!!!RDF**kern: < = below
!!!ENC: Andrzej Gręziak
!!!END: 2022-03-12
!!!ENC: Kamil Watkowski
!!!END: 2022-03-15
!!!IIIF: https://polona.pl/iiif/item/ODE1NjEwNDA/manifest.json
!!!ENC-iiif: Natalia Wrzos
!!!END-iiif: 2022-08-19
